images/github.svg

<svg height="36" viewBox="0 0 36 36" width="36" xmlns="http://www.w3.org/2000/svg"><circle cx="18" cy="18" fill="none" r="18"/><path d="m10.359 24.878c0 .125-.144.225-.325.225-.206.019-.35-.081-.35-.225 0-.125.144-.225.325-.225.191-.019.35.081.35.225zm-1.942-.278c-.044.125.081.269.269.306a.293.293 0 0 0 .387-.125c.037-.125-.081-.269-.269-.325a.321.321 0 0 0 -.387.144zm2.76-.106c-.181.044-.306.162-.287.306.019.125.181.206.368.162s.306-.162.287-.287-.187-.203-.368-.185zm4.109-23.931a14.973 14.973 0 0 0 -15.286 15.237 15.655 15.655 0 0 0 10.584 14.935c.8.144 1.08-.35 1.08-.756 0-.387-.019-2.523-.019-3.834 0 0-4.371.937-5.289-1.861 0 0-.712-1.817-1.736-2.285 0 0-1.43-.98.1-.962a3.3 3.3 0 0 1 2.41 1.611 3.3 3.3 0 0 0 4.552 1.305 3.471 3.471 0 0 1 1-2.1c-3.491-.387-7.012-.893-7.012-6.9a4.732 4.732 0 0 1 1.474-3.678 5.9 5.9 0 0 1 .162-4.24c1.305-.406 4.309 1.686 4.309 1.686a14.751 14.751 0 0 1 7.843 0s3-2.1 4.309-1.686a5.9 5.9 0 0 1 .162 4.24 4.854 4.854 0 0 1 1.611 3.678c0 6.026-3.678 6.506-7.168 6.9a3.693 3.693 0 0 1 1.062 2.9c0 2.1-.019 4.708-.019 5.22 0 .406.287.9 1.08.756a15.511 15.511 0 0 0 10.476-14.929c0-8.662-7.024-15.237-15.685-15.237zm-9.217 21.537c-.081.062-.062.206.044.325.1.1.244.144.325.062.081-.062.062-.206-.044-.325-.1-.101-.243-.144-.325-.062zm-.669-.507c-.044.081.019.181.144.244a.186.186 0 0 0 .269-.044c.044-.081-.019-.181-.144-.244-.13-.037-.23-.018-.269.044zm2.023 2.223c-.1.081-.062.269.081.387.144.144.325.162.406.062.081-.081.044-.269-.081-.387-.142-.143-.329-.162-.411-.062zm-.717-.916c-.1.062-.1.225 0 .368s.269.206.35.144a.285.285 0 0 0 0-.387c-.087-.146-.25-.208-.35-.125z" transform="translate(3 2.438)"/></svg>

<svg xmlns="http://www.w3.org/2000/svg" width="36" height="36" viewBox="0 0 36 36">
  <g id="github" transform="translate(-1167 -3281)">
    <circle id="circle" cx="18" cy="18" r="18" transform="translate(1167 3281)" fill="none"/>
    <path id="icon" d="M10.359,24.878c0,.125-.144.225-.325.225-.206.019-.35-.081-.35-.225,0-.125.144-.225.325-.225C10.2,24.634,10.359,24.734,10.359,24.878ZM8.417,24.6c-.044.125.081.269.269.306a.293.293,0,0,0,.387-.125c.037-.125-.081-.269-.269-.325A.321.321,0,0,0,8.417,24.6Zm2.76-.106c-.181.044-.306.162-.287.306.019.125.181.206.368.162s.306-.162.287-.287S11.358,24.472,11.177,24.49ZM15.286.563A14.973,14.973,0,0,0,0,15.8,15.655,15.655,0,0,0,10.584,30.735c.8.144,1.08-.35,1.08-.756,0-.387-.019-2.523-.019-3.834,0,0-4.371.937-5.289-1.861,0,0-.712-1.817-1.736-2.285,0,0-1.43-.98.1-.962a3.3,3.3,0,0,1,2.41,1.611,3.3,3.3,0,0,0,4.552,1.305,3.471,3.471,0,0,1,1-2.1c-3.491-.387-7.012-.893-7.012-6.9a4.732,4.732,0,0,1,1.474-3.678,5.9,5.9,0,0,1,.162-4.24c1.305-.406,4.309,1.686,4.309,1.686a14.751,14.751,0,0,1,7.843,0s3-2.1,4.309-1.686a5.9,5.9,0,0,1,.162,4.24,4.854,4.854,0,0,1,1.611,3.678c0,6.026-3.678,6.506-7.168,6.9a3.693,3.693,0,0,1,1.062,2.9c0,2.1-.019,4.708-.019,5.22,0,.406.287.9,1.08.756A15.511,15.511,0,0,0,30.971,15.8C30.971,7.138,23.947.563,15.286.563ZM6.069,22.1c-.081.062-.062.206.044.325.1.1.244.144.325.062.081-.062.062-.206-.044-.325C6.294,22.061,6.151,22.018,6.069,22.1ZM5.4,21.593c-.044.081.019.181.144.244a.186.186,0,0,0,.269-.044c.044-.081-.019-.181-.144-.244C5.539,21.512,5.439,21.531,5.4,21.593Zm2.023,2.223c-.1.081-.062.269.081.387.144.144.325.162.406.062.081-.081.044-.269-.081-.387C7.687,23.735,7.5,23.716,7.418,23.816ZM6.706,22.9c-.1.062-.1.225,0,.368s.269.206.35.144a.285.285,0,0,0,0-.387C6.969,22.879,6.806,22.817,6.706,22.9Z" transform="translate(1170 3283.438)"/>
  </g>
</svg>
